packages/core/src/svgs/tokens/mono/TULIP.svg

<svg width="24" height="24" viewBox="0 0 24 24" fill="none" xmlns="http://www.w3.org/2000/svg">
<path d="M11.4285 15.0566V18.7426C10.0969 16.3767 7.14248 15.3767 5.14233 15.3767C5.14233 20.2685 9.21693 22.0001 12 22.0001C14.7888 22.0001 18.8576 20.2685 18.8576 15.3767C16.8574 15.3767 13.903 16.3767 12.5715 18.7426V15.0681C12.1828 15.2567 11.8057 15.2396 11.4285 15.0566Z" fill="white"/>
<path d="M12.8747 2.43814C16.2921 6.87275 15.0291 11.7703 12.8576 14.7419C12.7601 14.8811 12.6305 14.9946 12.4797 15.0731C12.329 15.1515 12.1617 15.1924 11.9918 15.1924C11.8219 15.1924 11.6546 15.1515 11.5038 15.0731C11.3531 14.9946 11.2235 14.8811 11.126 14.7419C8.93156 11.8331 7.45145 7.08992 11.1145 2.43814C11.2174 2.30202 11.3504 2.19161 11.5031 2.1156C11.6558 2.03956 11.8241 2 11.9946 2C12.1653 2 12.3334 2.03956 12.4862 2.1156C12.6389 2.19161 12.7719 2.30202 12.8747 2.43814Z" fill="white"/>
<path d="M7.22253 3.5702C12.2914 5.63893 13.5258 10.5536 13.0515 14.2567C13.0295 14.4256 12.9681 14.587 12.8723 14.7276C12.7764 14.8684 12.6488 14.9847 12.4997 15.067C12.3506 15.1494 12.1842 15.1955 12.0141 15.2017C11.8439 15.2078 11.6746 15.1738 11.52 15.1025C8.22261 13.7138 4.69662 10.365 5.66241 4.42169C5.7767 3.70164 6.52533 3.27875 7.22253 3.56448V3.5702Z" fill="white"/>
<path d="M18.3491 4.43801C19.2062 10.0555 15.7889 13.6501 12.4915 15.1017C12.3375 15.1741 12.1685 15.2091 11.9982 15.2042C11.8281 15.1993 11.6615 15.1545 11.5119 15.0733C11.3623 14.9921 11.2338 14.8767 11.137 14.7367C11.04 14.5968 10.9775 14.436 10.9543 14.2673C10.4343 10.6041 11.4057 5.70668 16.7947 3.57509C16.9521 3.50779 17.1226 3.47724 17.2936 3.48578C17.4645 3.49431 17.6312 3.5417 17.7811 3.62435C17.931 3.70699 18.06 3.82271 18.1584 3.9627C18.2568 4.10272 18.322 4.26331 18.3491 4.4323V4.43801Z" fill="white"/>
</svg>

<svg xmlns="http://www.w3.org/2000/svg" width="24" height="24" fill="none" viewBox="0 0 24 24">
    <path fill="#fff" d="M11.429 15.057v3.686c-1.332-2.366-4.287-3.366-6.287-3.366C5.142 20.268 9.217 22 12 22c2.789 0 6.858-1.732 6.858-6.623-2 0-4.955 1-6.286 3.366v-3.675c-.39.189-.766.172-1.143-.011"/>
    <path fill="#fff" d="M12.875 2.438c3.417 4.435 2.154 9.332-.017 12.304a1.057 1.057 0 0 1-1.732 0c-2.194-2.909-3.675-7.652-.011-12.304a1.104 1.104 0 0 1 1.76 0"/>
    <path fill="#fff" d="M7.223 3.57c5.068 2.069 6.303 6.984 5.829 10.687a1.085 1.085 0 0 1-1.532.845c-3.297-1.388-6.823-4.737-5.858-10.68a1.127 1.127 0 0 1 1.56-.858z"/>
    <path fill="#fff" d="M18.35 4.438c.856 5.618-2.561 9.212-5.859 10.664a1.086 1.086 0 0 1-1.537-.835c-.52-3.663.452-8.56 5.84-10.692a1.126 1.126 0 0 1 1.555.857z"/>
</svg>
